Numix-Light/16/status/indicator-keyboard-Pt-4.svg

<?xml version="1.0" encoding="UTF-8" standalone="no"?>
<svg
   xmlns:dc="http://purl.org/dc/elements/1.1/"
   xmlns:cc="http://creativecommons.org/ns#"
   xmlns:rdf="http://www.w3.org/1999/02/22-rdf-syntax-ns#"
   xmlns:svg="http://www.w3.org/2000/svg"
   xmlns="http://www.w3.org/2000/svg"
   xmlns:sodipodi="http://sodipodi.sourceforge.net/DTD/sodipodi-0.dtd"
   xmlns:inkscape="http://www.inkscape.org/namespaces/inkscape"
   viewBox="0 0 16 16"
   id="svg2"
   version="1.1"
   inkscape:version="0.91 r13725"
   sodipodi:docname="indicator-keyboard-Pt-4.svg">
  <metadata
     id="metadata14">
    <rdf:RDF>
      <cc:Work
         rdf:about="">
        <dc:format>image/svg+xml</dc:format>
        <dc:type
           rdf:resource="http://purl.org/dc/dcmitype/StillImage" />
      </cc:Work>
    </rdf:RDF>
  </metadata>
  <defs
     id="defs12" />
  <sodipodi:namedview
     pagecolor="#ffffff"
     bordercolor="#666666"
     borderopacity="1"
     objecttolerance="10"
     gridtolerance="10"
     guidetolerance="10"
     inkscape:pageopacity="0"
     inkscape:pageshadow="2"
     inkscape:window-width="640"
     inkscape:window-height="480"
     id="namedview10"
     showgrid="false"
     inkscape:zoom="14.75"
     inkscape:cx="8"
     inkscape:cy="8"
     inkscape:window-x="65"
     inkscape:window-y="24"
     inkscape:window-maximized="0"
     inkscape:current-layer="svg2" />
  <path
     style="fill:#353535;fill-opacity:1"
     d="M 1.5996094 0 C 0.71320937 2.9605947e-16 0 0.71320937 0 1.5996094 L 0 14.400391 C 2.9605947e-16 15.286791 0.71320937 16 1.5996094 16 L 14.400391 16 C 15.286791 16 16 15.286791 16 14.400391 L 16 1.5996094 C 16 0.71320937 15.286791 0 14.400391 0 L 1.5996094 0 z M 4.0722656 4.8046875 C 4.9542656 4.8046875 5.6129219 4.9725937 6.0449219 5.3085938 C 6.4769219 5.6445937 6.6914062 6.1222344 6.6914062 6.7402344 C 6.6914062 7.0942344 6.6299063 7.3964375 6.5039062 7.6484375 C 6.3779063 7.8944375 6.1968906 8.0959531 5.9628906 8.2519531 C 5.7288906 8.4019531 5.4416094 8.5139375 5.0996094 8.5859375 C 4.7636094 8.6519375 4.3830313 8.6835937 3.9570312 8.6835938 L 3.109375 8.6835938 L 3.109375 11.095703 L 2.4980469 11.095703 L 2.4980469 4.9765625 C 2.7140469 4.9165625 2.9659062 4.8736094 3.2539062 4.8496094 C 3.5479062 4.8196094 3.8202656 4.8046875 4.0722656 4.8046875 z M 8.3378906 4.9667969 L 8.3378906 6.4433594 L 10.191406 6.4433594 L 10.191406 6.9375 L 8.3378906 6.9375 L 8.3378906 9.4121094 C 8.3378906 9.6761094 8.3583906 9.8925467 8.4003906 10.060547 C 8.4483906 10.222547 8.5136563 10.349453 8.5976562 10.439453 C 8.6816562 10.529453 8.7842969 10.589141 8.9042969 10.619141 C 9.0242969 10.649141 9.1567813 10.664063 9.3007812 10.664062 C 9.5467812 10.664062 9.7445313 10.636031 9.8945312 10.582031 C 10.044532 10.522031 10.162094 10.469875 10.246094 10.421875 L 10.388672 10.90625 C 10.304672 10.96025 10.159219 11.023703 9.9492188 11.095703 C 9.7392187 11.161703 9.5096719 11.195312 9.2636719 11.195312 C 8.9756719 11.195312 8.7331563 11.159891 8.5351562 11.087891 C 8.3431562 11.009891 8.1883594 10.894141 8.0683594 10.744141 C 7.9543594 10.588141 7.8722187 10.397922 7.8242188 10.169922 C 7.7762187 9.9419217 7.7519531 9.671375 7.7519531 9.359375 L 7.7519531 5.0742188 L 8.3378906 4.9667969 z M 4.0996094 5.3359375 C 3.8716094 5.3359375 3.677625 5.3452813 3.515625 5.3632812 C 3.359625 5.3752813 3.223375 5.3864375 3.109375 5.3984375 L 3.109375 8.1523438 L 3.8847656 8.1523438 C 4.2147656 8.1523438 4.5113906 8.1356094 4.7753906 8.0996094 C 5.0453906 8.0576094 5.2729844 7.9848125 5.4589844 7.8828125 C 5.6509844 7.7748125 5.7983906 7.6274062 5.9003906 7.4414062 C 6.0023906 7.2554062 6.0527344 7.0184688 6.0527344 6.7304688 C 6.0527344 6.4544687 5.9968125 6.226875 5.8828125 6.046875 C 5.7748125 5.866875 5.6274062 5.7250469 5.4414062 5.6230469 C 5.2614063 5.5150469 5.0543125 5.4404375 4.8203125 5.3984375 C 4.5863125 5.3564375 4.3456094 5.3359375 4.0996094 5.3359375 z M 12.601562 8.8417969 L 12.998047 8.8417969 L 12.998047 11.486328 L 13.501953 11.486328 L 13.501953 11.796875 L 12.998047 11.796875 L 12.998047 12.896484 L 12.625 12.896484 L 12.625 11.796875 L 10.787109 11.796875 L 10.787109 11.5625 C 10.857309 11.3753 10.955278 11.163687 11.080078 10.929688 C 11.208778 10.695688 11.353772 10.456637 11.513672 10.210938 C 11.673572 9.9652374 11.846003 9.7261874 12.033203 9.4921875 C 12.220403 9.2542875 12.410463 9.0367969 12.601562 8.8417969 z M 12.625 9.2695312 C 12.4885 9.4099312 12.349384 9.5706063 12.208984 9.7539062 C 12.068584 9.9372063 11.933387 10.129225 11.804688 10.328125 C 11.679887 10.523125 11.564278 10.719069 11.455078 10.917969 C 11.345878 11.116869 11.253788 11.306928 11.179688 11.486328 L 12.625 11.486328 L 12.625 9.2695312 z "
     id="path4" />
</svg>

<svg xmlns="http://www.w3.org/2000/svg" viewBox="0 0 16 16">
 <path d="m 1.6 0 c -0.886 0 -1.6 0.713 -1.6 1.6 l 0 12.801 c 0 0.886 0.713 1.6 1.6 1.6 l 12.801 0 c 0.886 0 1.6 -0.713 1.6 -1.6 l 0 -12.801 c 0 -0.886 -0.713 -1.6 -1.6 -1.6 l -12.801 0 z m 2.473 4.805 c 0.882 0 1.541 0.168 1.973 0.504 c 0.432 0.336 0.646 0.814 0.646 1.432 c 0 0.354 -0.061 0.656 -0.188 0.908 c -0.126 0.246 -0.307 0.448 -0.541 0.604 c -0.234 0.15 -0.521 0.262 -0.863 0.334 c -0.336 0.066 -0.717 0.098 -1.143 0.098 l -0.848 0 l 0 2.412 l -0.611 0 l 0 -6.119 c 0.216 -0.06 0.468 -0.103 0.756 -0.127 c 0.294 -0.03 0.566 -0.045 0.818 -0.045 z m 4.266 0.162 l 0 1.477 l 1.854 0 l 0 0.494 l -1.854 0 l 0 2.475 c 0 0.264 0.021 0.48 0.063 0.648 c 0.048 0.162 0.113 0.289 0.197 0.379 c 0.084 0.09 0.187 0.15 0.307 0.18 c 0.12 0.03 0.252 0.045 0.396 0.045 c 0.246 0 0.444 -0.028 0.594 -0.082 c 0.15 -0.06 0.268 -0.112 0.352 -0.16 l 0.143 0.484 c -0.084 0.054 -0.229 0.117 -0.439 0.189 c -0.21 0.066 -0.44 0.1 -0.686 0.1 c -0.288 0 -0.531 -0.035 -0.729 -0.107 c -0.192 -0.078 -0.347 -0.194 -0.467 -0.344 c -0.114 -0.156 -0.196 -0.346 -0.244 -0.574 c -0.048 -0.228 -0.072 -0.499 -0.072 -0.811 l 0 -4.285 l 0.586 -0.107 z m -4.238 0.369 c -0.228 0 -0.422 0.009 -0.584 0.027 c -0.156 0.012 -0.292 0.023 -0.406 0.035 l 0 2.754 l 0.775 0 c 0.33 0 0.627 -0.017 0.891 -0.053 c 0.27 -0.042 0.498 -0.115 0.684 -0.217 c 0.192 -0.108 0.339 -0.255 0.441 -0.441 c 0.102 -0.186 0.152 -0.423 0.152 -0.711 c 0 -0.276 -0.056 -0.504 -0.17 -0.684 c -0.108 -0.18 -0.255 -0.322 -0.441 -0.424 c -0.18 -0.108 -0.387 -0.183 -0.621 -0.225 c -0.234 -0.042 -0.475 -0.063 -0.721 -0.063 z m 8.502 3.506 l 0.396 0 l 0 2.645 l 0.504 0 l 0 0.311 l -0.504 0 l 0 1.1 l -0.373 0 l 0 -1.1 l -1.838 0 l 0 -0.234 c 0.07 -0.187 0.168 -0.399 0.293 -0.633 c 0.129 -0.234 0.274 -0.473 0.434 -0.719 c 0.16 -0.246 0.332 -0.485 0.52 -0.719 c 0.187 -0.238 0.377 -0.455 0.568 -0.65 z m 0.023 0.428 c -0.136 0.14 -0.276 0.301 -0.416 0.484 c -0.14 0.183 -0.276 0.375 -0.404 0.574 c -0.125 0.195 -0.24 0.391 -0.35 0.59 c -0.109 0.199 -0.201 0.389 -0.275 0.568 l 1.445 0 l 0 -2.217 z" style="fill:#353535;fill-opacity:1"/>
</svg>
